X: 66
% Old value - X:24
T:Derry Hornpipe, The
R:hornpipe
M:C|
K:D
AG|:F2Ad fdAF|G2Bd gdBG|F2Ad fdAF|E2Ac ecAG|
F2Ad fdAF|G2Bd g2ag|(3faf df eAce|1 dfec dBAG:|2 dfec defg||
|:a2fd Adfa|g2ec Aceg|a2fd Adfd|(3efe (3dcB A2fg|
a2fd Adfa|gfef g2ag|(3faf df eAce|1 dfec defg:|2 dfec dBAG||

